X: 1
T:Craigdarroch Arms
M:6/8
L:1/8
Q:80
C:
S:Jig
K:HP
|: | {g}B{d}B{e}B{g}dBf|
{g}eBd{g}cef|
{g}B{d}B{e}B{g}dBf|  !
{g}ede{g}f3|
{g}B{d}B{e}B{g}dBf|
{g}eBd{g}cde|  !
{g}ef{e}f{g}edc|
{g}dBc{gBd}B3:| |:
A|  !
{ag}a2f{g}fed|
{g}efd{g}cde|
{ag}a2f{g}fed|  !
{g}ede{g}f3|
{ag}a2f{g}fed|
{g}efd{g}cde|  !
{g}ef{e}f{g}edc|
{g}dBc{gBd}B2:|
